Yaru++/apps/scalable/torrent.svg

<svg fill="none" height="256" viewBox="0 0 256 256" width="256" xmlns="http://www.w3.org/2000/svg" xmlns:xlink="http://www.w3.org/1999/xlink"><linearGradient id="a" gradientUnits="userSpaceOnUse" x1="175.752" x2="79.752" y1="236.248" y2="12.248"><stop offset="0" stop-color="#e6e6e6"/><stop offset="1" stop-color="#d3d3d3"/></linearGradient><linearGradient id="b"><stop offset="0"/><stop offset="1" stop-opacity="0"/></linearGradient><linearGradient id="c" gradientUnits="userSpaceOnUse" x1="127.752" x2="127.752" xlink:href="#b" y1="92.248" y2="204.248"/><linearGradient id="d" gradientUnits="userSpaceOnUse" x1="111.914" x2="149.247" y1="55.8027" y2="192.693"><stop offset="0"/><stop offset="1" stop-opacity=".8"/></linearGradient><linearGradient id="e" gradientUnits="userSpaceOnUse" x1="108.008" x2="103.119" xlink:href="#b" y1="104.693" y2="104.693"/><linearGradient id="f" gradientUnits="userSpaceOnUse" x1="147.396" x2="152.285" xlink:href="#b" y1="104.693" y2="104.693"/><g fill="#000"><path d="m127.752 240.248c61.856 0 112-50.144 112-112 0-61.8558-50.144-112-112-112-61.8559 0-112 50.1442-112 112 0 61.856 50.1441 112 112 112z" opacity=".1"/><path d="m127.752 238.248c61.856 0 112-50.144 112-112 0-61.8559-50.144-112-112-112-61.8559 0-112 50.1441-112 112 0 61.856 50.1441 112 112 112z" opacity=".1"/><path d="m127.752 238.248c62.96 0 114-51.04 114-114 0-62.9605-51.04-114-114-114-62.9605 0-114 51.0395-114 114 0 62.96 51.0395 114 114 114z" opacity=".1"/></g><path d="m127.752 12.248c-61.8559 0-112 50.1441-112 112 0 61.856 50.1441 112 112 112 61.856 0 112-50.144 112-112 0-61.8559-50.144-112-112-112z" fill="url(#a)"/><path d="m15.752 133.944c2.5508 27.943 15.4486 53.925 36.1641 72.851s47.7541 29.43 75.8129 29.453c28.067-.011 55.117-10.511 75.842-29.438s33.629-44.915 36.181-72.866z" fill="#fff" opacity=".25"/><path d="m127.752 36.248c48.601 0 88 39.3989 88 88 0 48.601-39.399 88-88 88-48.6011 0-88-39.399-88-88 0-48.6011 39.3989-88 88-88z" fill="#5d5d5d"/><path d="m39.752 124.248c0-23.339 9.2713-45.7222 25.7746-62.2254 16.5032-16.5032 38.8864-25.7746 62.2254-25.7746s45.722 9.2714 62.225 25.7746c16.504 16.5032 25.775 38.8864 25.775 62.2254z" fill="#000" opacity=".05"/><path d="m127.752 38.248c-48.6011 0-88 39.3989-88 88 0 48.601 39.3989 88 88 88 48.601 0 88-39.399 88-88 0-48.6011-39.399-88-88-88z" opacity=".2" stroke="url(#c)" stroke-linejoin="round" stroke-width="10"/><path d="m127.752 212.248c48.601 0 88-39.399 88-88 0-48.6011-39.399-88-88-88-48.6011 0-88 39.3989-88 88 0 48.601 39.3989 88 88 88z" fill="#aea795"/><path d="m127.752 36.248c-11.556 0-23 2.2762-33.6762 6.6986-10.6766 4.4224-20.3777 10.9044-28.5492 19.076-8.1716 8.1715-14.6536 17.8726-19.076 28.5492-4.4225 10.6772-6.6986 22.1202-6.6986 33.6762h176c0-11.556-2.276-22.999-6.699-33.6762-4.422-10.6766-10.904-20.3777-19.076-28.5492-8.171-8.1716-17.872-14.6536-28.549-19.076s-22.12-6.6986-33.676-6.6986z" fill="#000" opacity=".05"/><path d="m127.752 38.248c-48.6011 0-88 39.3989-88 88 0 48.601 39.3989 88 88 88 48.601 0 88-39.399 88-88 0-48.6011-39.399-88-88-88z" opacity=".05" stroke="url(#c)" stroke-linejoin="round" stroke-width="10"/><path d="m127.752 55.8027-34.2227 39.1113h14.6677v19.557 19.554 19.557h-14.6677l34.2227 39.111 34.223-39.111h-14.668v-19.557-19.554-19.557h14.668z" fill="url(#d)" opacity=".5"/><path d="m127.752 55.8027-34.2227 39.1114h.875l33.3477-38.1114 33.348 38.1114h.875z" fill="#000" opacity=".2"/><path d="m92.6567 153.581 35.0953 40.11 35.095-40.11h-.873l-34.222 39.112-34.2222-39.112z" fill="#fff" opacity=".3"/><path d="m122.775 86.026c-8.126-.0001-14.667 2.1804-14.667 4.8889h-19.467c-8.1253 0-14.6667 2.1804-14.6667 4.8889-2.7084 0-4.8889 2.1804-4.8889 4.8892v9.777c0 2.709 2.1805 4.889 4.8889 4.889 0 2.709 6.5414 4.889 14.6667 4.889h19.467c0 2.709 6.541 4.889 14.667 4.889h9.855c8.125 0 14.666-2.18 14.666-4.889h19.567c8.126 0 14.667-2.18 14.667-4.889 2.708 0 4.889-2.18 4.889-4.889v-9.777c0-2.7088-2.181-4.8892-4.889-4.8892 0-2.7085-6.541-4.889-14.667-4.8889l-19.567.0001c0-2.7084-6.541-4.8887-14.666-4.8888z" fill="#000" opacity=".3"/><path d="m181.53 94.9149h-107.5557c-2.7 0-4.8889 2.1888-4.8889 4.8889v9.7782c0 2.7 2.1889 4.888 4.8889 4.888h107.5557c2.7 0 4.889-2.188 4.889-4.888v-9.7782c0-2.7001-2.189-4.8889-4.889-4.8889z" fill="#faf8f6"/><path d="m73.9746 94.9142c-2.7084 0-4.8887 2.1803-4.8887 4.8887v1.0001c0-2.7085 2.1803-4.8888 4.8887-4.8888h107.5544c2.709 0 4.889 2.1803 4.889 4.8888v-1.0001c0-2.7084-2.18-4.8887-4.889-4.8887z" fill="#fff"/><path d="m127.752 134.248c8.837 0 16-7.163 16-16s-7.163-16-16-16-16 7.163-16 16 7.163 16 16 16z" fill="#000" opacity=".3"/><path d="m166.863 90.026h-78.2222c-8.1002 0-14.6667 2.1888-14.6667 4.8889v19.5551c0 2.701 6.5665 4.889 14.6667 4.889h78.2222c8.1 0 14.667-2.188 14.667-4.889v-19.5551c0-2.7001-6.567-4.8889-14.667-4.8889z" fill="#f22c42"/><path d="m88.6406 90.0256c-8.1253 0-14.666 2.1802-14.666 4.8887v1c0-2.7085 6.5407-4.8887 14.666-4.8887h78.2224c8.126 0 14.666 2.1802 14.666 4.8887v-1c0-2.7085-6.54-4.8887-14.666-4.8887z" fill="#fff" opacity=".5"/><path d="m108.008 90.026h-4.889v29.333h4.889z" fill="url(#e)" opacity=".15"/><path d="m147.396 90.0259h4.889v29.3331h-4.889z" fill="url(#f)" opacity=".15"/><path d="m122.775 85.1371 9.855.0001c8.125.0001 14.666 2.1805 14.666 4.8889v29.3329c0 2.709-6.541 4.889-14.666 4.889h-9.855c-8.126 0-14.667-2.18-14.667-4.889v-29.333c0-2.7085 6.541-4.889 14.667-4.8889z" fill="#faf8f6"/><path d="m122.775 85.1369c-8.125 0-14.668 2.1802-14.668 4.8887v1c0-2.7085 6.543-4.8887 14.668-4.8887h9.954c8.125 0 14.668 2.1802 14.668 4.8887v-1c0-2.7085-6.543-4.8887-14.668-4.8887z" fill="#fff"/><path d="m186.42 99.1484v9.4336c0 2.708-2.18 4.889-4.889 4.889 0 2.708-6.542 4.888-14.668 4.888h-19.566c0 2.709-6.541 4.889-14.666 4.889h-9.856c-8.125 0-14.666-2.18-14.666-4.889h-19.4664c-8.1253 0-14.668-2.18-14.668-4.888-2.4814 0-4.5156-1.831-4.8398-4.221v.332c0 2.708 2.1802 4.889 4.8886 4.889 0 2.708 6.5427 4.888 14.668 4.888h19.4666c0 2.709 6.541 4.889 14.666 4.889h9.856c8.125 0 14.666-2.18 14.666-4.889h19.566c8.125 0 14.668-2.18 14.668-4.888 2.709 0 4.889-2.181 4.889-4.889v-9.7773c0-.223-.02-.4413-.049-.6563z" fill="#000" opacity=".2"/><path d="m127.752 12.248c-29.7043 0-58.1919 11.8-79.196 32.804-21.0041 21.0041-32.804 49.4917-32.804 79.196.0116.39.0253.78.041 1.17.219-29.5532 12.11-57.8218 33.0815-78.6455 20.9715-20.8238 49.3236-32.5145 78.8775-32.5245 29.495.0092 57.797 11.6532 78.759 32.4037 20.962 20.7506 32.892 48.9324 33.2 78.4263.015-.277.028-.553.041-.83 0-14.708-2.897-29.2721-8.526-42.8606-5.628-13.5884-13.878-25.9352-24.278-36.3354-10.4-10.4001-22.747-18.65-36.336-24.2785-13.588-5.6285-28.152-8.5255-42.86-8.5255z" fill="#fff" opacity=".3"/><path d="m127.752 236.248c-29.7043 0-58.1919-11.8-79.196-32.804s-32.804-49.492-32.804-79.196c.0116-.39.0253-.78.041-1.17.219 29.553 12.11 57.822 33.0815 78.646 20.9715 20.823 49.3236 32.514 78.8775 32.524 29.495-.009 57.797-11.653 78.759-32.404 20.962-20.75 32.892-48.932 33.2-78.426.015.277.028.553.041.83 0 29.704-11.8 58.192-32.804 79.196s-49.492 32.804-79.196 32.804z" fill="#000" opacity=".2"/></svg>

<svg width="256" height="256" viewBox="0 0 256 256" fill="none" xmlns="http://www.w3.org/2000/svg">
<path opacity="0.1" d="M127.752 240.248C189.608 240.248 239.752 190.104 239.752 128.248C239.752 66.3922 189.608 16.248 127.752 16.248C65.8961 16.248 15.752 66.3922 15.752 128.248C15.752 190.104 65.8961 240.248 127.752 240.248Z" fill="black"/>
<path opacity="0.1" d="M127.752 238.248C189.608 238.248 239.752 188.104 239.752 126.248C239.752 64.3921 189.608 14.248 127.752 14.248C65.8961 14.248 15.752 64.3921 15.752 126.248C15.752 188.104 65.8961 238.248 127.752 238.248Z" fill="black"/>
<path opacity="0.1" d="M127.752 238.248C190.712 238.248 241.752 187.208 241.752 124.248C241.752 61.2875 190.712 10.248 127.752 10.248C64.7915 10.248 13.752 61.2875 13.752 124.248C13.752 187.208 64.7915 238.248 127.752 238.248Z" fill="black"/>
<path d="M127.752 12.248C65.8961 12.248 15.752 62.3921 15.752 124.248C15.752 186.104 65.8961 236.248 127.752 236.248C189.608 236.248 239.752 186.104 239.752 124.248C239.752 62.3921 189.608 12.248 127.752 12.248Z" fill="url(#paint0_linear)"/>
<path opacity="0.25" d="M15.752 133.944C18.3028 161.887 31.2006 187.869 51.9161 206.795C72.6316 225.721 99.6702 236.225 127.729 236.248C155.796 236.237 182.846 225.737 203.571 206.81C224.296 187.883 237.2 161.895 239.752 133.944H15.752Z" fill="white"/>
<path d="M127.752 36.248C176.353 36.248 215.752 75.6469 215.752 124.248C215.752 172.849 176.353 212.248 127.752 212.248C79.1509 212.248 39.752 172.849 39.752 124.248C39.752 75.6469 79.1509 36.248 127.752 36.248Z" fill="#5D5D5D"/>
<path opacity="0.05" d="M39.752 124.248C39.752 100.909 49.0233 78.5258 65.5266 62.0226C82.0298 45.5194 104.413 36.248 127.752 36.248C151.091 36.248 173.474 45.5194 189.977 62.0226C206.481 78.5258 215.752 100.909 215.752 124.248H39.752Z" fill="black"/>
<path opacity="0.2" d="M127.752 38.248C79.1509 38.248 39.752 77.6469 39.752 126.248C39.752 174.849 79.1509 214.248 127.752 214.248C176.353 214.248 215.752 174.849 215.752 126.248C215.752 77.6469 176.353 38.248 127.752 38.248Z" stroke="url(#paint1_linear)" stroke-width="10" stroke-linejoin="round"/>
<path d="M127.752 212.248C176.353 212.248 215.752 172.849 215.752 124.248C215.752 75.6469 176.353 36.248 127.752 36.248C79.1509 36.248 39.752 75.6469 39.752 124.248C39.752 172.849 79.1509 212.248 127.752 212.248Z" fill="#AEA795"/>
<path opacity="0.05" d="M127.752 36.248C116.196 36.248 104.752 38.5242 94.0758 42.9466C83.3992 47.369 73.6981 53.851 65.5266 62.0226C57.355 70.1941 50.873 79.8952 46.4506 90.5718C42.0281 101.249 39.752 112.692 39.752 124.248H215.752C215.752 112.692 213.476 101.249 209.053 90.5718C204.631 79.8952 198.149 70.1941 189.977 62.0226C181.806 53.851 172.105 47.369 161.428 42.9466C150.751 38.5242 139.308 36.248 127.752 36.248V36.248Z" fill="black"/>
<path opacity="0.05" d="M127.752 38.248C79.1509 38.248 39.752 77.6469 39.752 126.248C39.752 174.849 79.1509 214.248 127.752 214.248C176.353 214.248 215.752 174.849 215.752 126.248C215.752 77.6469 176.353 38.248 127.752 38.248Z" stroke="url(#paint2_linear)" stroke-width="10" stroke-linejoin="round"/>
<path opacity="0.5" d="M127.752 55.8027L93.5293 94.914H108.197V114.471V134.025V153.582H93.5293L127.752 192.693L161.975 153.582H147.307V134.025V114.471V94.914H161.975L127.752 55.8027Z" fill="url(#paint3_linear)"/>
<path opacity="0.2" d="M127.752 55.8027L93.5293 94.9141H94.4043L127.752 56.8027L161.1 94.9141H161.975L127.752 55.8027Z" fill="black"/>
<path opacity="0.3" d="M92.6567 153.581L127.752 193.691L162.847 153.581H161.974L127.752 192.693L93.5298 153.581H92.6567Z" fill="white"/>
<path opacity="0.3" d="M122.775 86.026C114.649 86.0259 108.108 88.2064 108.108 90.9149H88.641C80.5157 90.9149 73.9743 93.0953 73.9743 95.8038C71.2659 95.8038 69.0854 97.9842 69.0854 100.693V110.47C69.0854 113.179 71.2659 115.359 73.9743 115.359C73.9743 118.068 80.5157 120.248 88.641 120.248H108.108C108.108 122.957 114.649 125.137 122.775 125.137L132.63 125.137C140.755 125.137 147.296 122.957 147.296 120.248L166.863 120.248C174.989 120.248 181.53 118.068 181.53 115.359C184.238 115.359 186.419 113.179 186.419 110.47V100.693C186.419 97.9842 184.238 95.8038 181.53 95.8038C181.53 93.0953 174.989 90.9148 166.863 90.9149L147.296 90.915C147.296 88.2066 140.755 86.0263 132.63 86.0262L122.775 86.026Z" fill="black"/>
<path d="M181.53 94.9149H73.9743C71.2743 94.9149 69.0854 97.1037 69.0854 99.8038V109.582C69.0854 112.282 71.2743 114.47 73.9743 114.47H181.53C184.23 114.47 186.419 112.282 186.419 109.582V99.8038C186.419 97.1037 184.23 94.9149 181.53 94.9149Z" fill="#FAF8F6"/>
<path d="M73.9746 94.9142C71.2662 94.9142 69.0859 97.0945 69.0859 99.8029V100.803C69.0859 98.0945 71.2662 95.9142 73.9746 95.9142H181.529C184.238 95.9142 186.418 98.0945 186.418 100.803V99.8029C186.418 97.0945 184.238 94.9142 181.529 94.9142H73.9746Z" fill="white"/>
<path opacity="0.3" d="M127.752 134.248C136.589 134.248 143.752 127.085 143.752 118.248C143.752 109.411 136.589 102.248 127.752 102.248C118.915 102.248 111.752 109.411 111.752 118.248C111.752 127.085 118.915 134.248 127.752 134.248Z" fill="black"/>
<path d="M166.863 90.026H88.6408C80.5406 90.026 73.9741 92.2148 73.9741 94.9149V114.47C73.9741 117.171 80.5406 119.359 88.6408 119.359H166.863C174.963 119.359 181.53 117.171 181.53 114.47V94.9149C181.53 92.2148 174.963 90.026 166.863 90.026Z" fill="#F22C42"/>
<path opacity="0.5" d="M88.6406 90.0256C80.5153 90.0256 73.9746 92.2058 73.9746 94.9143V95.9143C73.9746 93.2058 80.5153 91.0256 88.6406 91.0256H166.863C174.989 91.0256 181.529 93.2058 181.529 95.9143V94.9143C181.529 92.2058 174.989 90.0256 166.863 90.0256H88.6406Z" fill="white"/>
<path opacity="0.15" d="M108.008 90.026H103.119V119.359H108.008V90.026Z" fill="url(#paint4_linear)"/>
<path opacity="0.15" d="M147.396 90.0259H152.285V119.359H147.396V90.0259Z" fill="url(#paint5_linear)"/>
<path d="M122.775 85.1371L132.63 85.1372C140.755 85.1373 147.296 87.3177 147.296 90.0261V119.359C147.296 122.068 140.755 124.248 132.63 124.248L122.775 124.248C114.649 124.248 108.108 122.068 108.108 119.359V90.026C108.108 87.3175 114.649 85.137 122.775 85.1371Z" fill="#FAF8F6"/>
<path d="M122.775 85.1369C114.65 85.1369 108.107 87.3171 108.107 90.0256V91.0256C108.107 88.3171 114.65 86.1369 122.775 86.1369H132.729C140.854 86.1369 147.397 88.3171 147.397 91.0256V90.0256C147.397 87.3171 140.854 85.1369 132.729 85.1369H122.775Z" fill="white"/>
<path opacity="0.2" d="M186.42 99.1484V108.582C186.42 111.29 184.24 113.471 181.531 113.471C181.531 116.179 174.989 118.359 166.863 118.359H147.297C147.297 121.068 140.756 123.248 132.631 123.248H122.775C114.65 123.248 108.109 121.068 108.109 118.359H88.6426C80.5173 118.359 73.9746 116.179 73.9746 113.471C71.4932 113.471 69.459 111.64 69.1348 109.25V109.582C69.1348 112.29 71.315 114.471 74.0234 114.471C74.0234 117.179 80.5661 119.359 88.6914 119.359H108.158C108.158 122.068 114.699 124.248 122.824 124.248H132.68C140.805 124.248 147.346 122.068 147.346 119.359H166.912C175.037 119.359 181.58 117.179 181.58 114.471C184.289 114.471 186.469 112.29 186.469 109.582V99.8047C186.469 99.5817 186.449 99.3634 186.42 99.1484H186.42Z" fill="black"/>
<path opacity="0.3" d="M127.752 12.248C98.0477 12.248 69.5601 24.048 48.556 45.052C27.5519 66.0561 15.752 94.5437 15.752 124.248C15.7636 124.638 15.7773 125.028 15.793 125.418C16.012 95.8648 27.903 67.5962 48.8745 46.7725C69.846 25.9487 98.1981 14.258 127.752 14.248C157.247 14.2572 185.549 25.9012 206.511 46.6517C227.473 67.4023 239.403 95.5841 239.711 125.078C239.726 124.801 239.739 124.525 239.752 124.248C239.752 109.54 236.855 94.9759 231.226 81.3874C225.598 67.799 217.348 55.4522 206.948 45.052C196.548 34.6519 184.201 26.402 170.612 20.7735C157.024 15.145 142.46 12.248 127.752 12.248H127.752Z" fill="white"/>
<path opacity="0.2" d="M127.752 236.248C98.0477 236.248 69.5601 224.448 48.556 203.444C27.5519 182.44 15.752 153.952 15.752 124.248C15.7636 123.858 15.7773 123.468 15.793 123.078C16.012 152.631 27.903 180.9 48.8745 201.724C69.846 222.547 98.1981 234.238 127.752 234.248C157.247 234.239 185.549 222.595 206.511 201.844C227.473 181.094 239.403 152.912 239.711 123.418C239.726 123.695 239.739 123.971 239.752 124.248C239.752 153.952 227.952 182.44 206.948 203.444C185.944 224.448 157.456 236.248 127.752 236.248H127.752Z" fill="black"/>
<defs>
<linearGradient id="paint0_linear" x1="175.752" y1="236.248" x2="79.752" y2="12.248" gradientUnits="userSpaceOnUse">
<stop stop-color="#E6E6E6"/>
<stop offset="1" stop-color="#D3D3D3"/>
</linearGradient>
<linearGradient id="paint1_linear" x1="127.752" y1="92.248" x2="127.752" y2="204.248" gradientUnits="userSpaceOnUse">
<stop/>
<stop offset="1" stop-opacity="0"/>
</linearGradient>
<linearGradient id="paint2_linear" x1="127.752" y1="92.248" x2="127.752" y2="204.248" gradientUnits="userSpaceOnUse">
<stop/>
<stop offset="1" stop-opacity="0"/>
</linearGradient>
<linearGradient id="paint3_linear" x1="111.914" y1="55.8027" x2="149.247" y2="192.693" gradientUnits="userSpaceOnUse">
<stop/>
<stop offset="1" stop-opacity="0.8"/>
</linearGradient>
<linearGradient id="paint4_linear" x1="108.008" y1="104.693" x2="103.119" y2="104.693" gradientUnits="userSpaceOnUse">
<stop/>
<stop offset="1" stop-opacity="0"/>
</linearGradient>
<linearGradient id="paint5_linear" x1="147.396" y1="104.693" x2="152.285" y2="104.693" gradientUnits="userSpaceOnUse">
<stop/>
<stop offset="1" stop-opacity="0"/>
</linearGradient>
</defs>
</svg>
